docs/images/icons/insta-white.svg

<svg width="24.801" height="24.8" fill="none" xmlns="http://www.w3.org/2000/svg"><path d="M7.49.39C3.58.39.4 3.58.4 7.49v9.81c0 3.91 3.18 7.09 7.09 7.09h9.81c3.91 0 7.1-3.18 7.1-7.09V7.49c0-3.91-3.19-7.1-7.1-7.1H7.49Zm0 1.1h9.81c3.32 0 6 2.68 6 6v9.81c0 3.32-2.68 6-6 6H7.49c-3.32 0-6-2.68-6-6V7.49c0-3.32 2.68-6 6-6Zm11.45 3.27c-.29 0-.57.11-.77.32-.21.2-.32.48-.32.77 0 .29.11.57.32.77.2.21.48.32.77.32.29 0 .57-.11.77-.32.21-.2.32-.48.32-.77 0-.29-.11-.57-.32-.77-.2-.21-.48-.32-.77-.32ZM12.4 6.39c-3.31 0-6 2.7-6 6 0 3.31 2.69 6 6 6 3.3 0 6-2.69 6-6 0-3.3-2.7-6-6-6Zm0 1.1c2.71 0 4.9 2.19 4.9 4.9 0 2.72-2.19 4.91-4.9 4.91a4.9 4.9 0 0 1-4.91-4.91c0-2.71 2.19-4.9 4.91-4.9Z" fill="#FFF"/><path d="M.4 7.49v9.81c0 3.91 3.18 7.09 7.09 7.09h9.81c3.91 0 7.1-3.18 7.1-7.09V7.49c0-3.91-3.19-7.1-7.1-7.1H7.49C3.58.39.4 3.58.4 7.49Zm16.9-6c3.32 0 6 2.68 6 6v9.81c0 3.32-2.68 6-6 6H7.49c-3.32 0-6-2.68-6-6V7.49c0-3.32 2.68-6 6-6h9.81Zm.87 3.59c-.21.2-.32.48-.32.77 0 .29.11.57.32.77.2.21.48.32.77.32.29 0 .57-.11.77-.32.21-.2.32-.48.32-.77 0-.29-.11-.57-.32-.77-.2-.21-.48-.32-.77-.32-.29 0-.57.11-.77.32ZM6.4 12.39c0 3.31 2.69 6 6 6 3.3 0 6-2.69 6-6 0-3.3-2.7-6-6-6-3.31 0-6 2.7-6 6Zm10.9 0c0 2.72-2.19 4.91-4.9 4.91a4.9 4.9 0 0 1-4.91-4.91c0-2.71 2.19-4.9 4.91-4.9 2.71 0 4.9 2.19 4.9 4.9Z" stroke="#FFF" stroke-width=".8"/></svg>

<svg width="24.800781" height="24.799805" viewBox="0 0 24.8008 24.7998" fill="none" xmlns="http://www.w3.org/2000/svg" xmlns:xlink="http://www.w3.org/1999/xlink">
	<desc>
			Created with Pixso.
	</desc>
	<defs/>
	<path id="Vector" d="M7.49 0.39C3.58 0.39 0.4 3.58 0.4 7.49L0.4 17.3C0.4 21.21 3.58 24.39 7.49 24.39L17.3 24.39C21.21 24.39 24.4 21.21 24.4 17.3L24.4 7.49C24.4 3.58 21.21 0.39 17.3 0.39L7.49 0.39ZM7.49 1.49L17.3 1.49C20.62 1.49 23.3 4.17 23.3 7.49L23.3 17.3C23.3 20.62 20.62 23.3 17.3 23.3L7.49 23.3C4.17 23.3 1.49 20.62 1.49 17.3L1.49 7.49C1.49 4.17 4.17 1.49 7.49 1.49ZM18.94 4.76C18.65 4.76 18.37 4.87 18.17 5.08C17.96 5.28 17.85 5.56 17.85 5.85C17.85 6.14 17.96 6.42 18.17 6.62C18.37 6.83 18.65 6.94 18.94 6.94C19.23 6.94 19.51 6.83 19.71 6.62C19.92 6.42 20.03 6.14 20.03 5.85C20.03 5.56 19.92 5.28 19.71 5.08C19.51 4.87 19.23 4.76 18.94 4.76ZM12.4 6.39C9.09 6.39 6.4 9.09 6.4 12.39C6.4 15.7 9.09 18.39 12.4 18.39C15.7 18.39 18.4 15.7 18.4 12.39C18.4 9.09 15.7 6.39 12.4 6.39ZM12.4 7.49C15.11 7.49 17.3 9.68 17.3 12.39C17.3 15.11 15.11 17.3 12.4 17.3C9.68 17.3 7.49 15.11 7.49 12.39C7.49 9.68 9.68 7.49 12.4 7.49Z" fill="#FFFFFF" fill-opacity="1.000000" fill-rule="nonzero"/>
	<path id="Vector" d="M0.4 7.49L0.4 17.3C0.4 21.21 3.58 24.39 7.49 24.39L17.3 24.39C21.21 24.39 24.4 21.21 24.4 17.3L24.4 7.49C24.4 3.58 21.21 0.39 17.3 0.39L7.49 0.39C3.58 0.39 0.4 3.58 0.4 7.49ZM17.3 1.49C20.62 1.49 23.3 4.17 23.3 7.49L23.3 17.3C23.3 20.62 20.62 23.3 17.3 23.3L7.49 23.3C4.17 23.3 1.49 20.62 1.49 17.3L1.49 7.49C1.49 4.17 4.17 1.49 7.49 1.49L17.3 1.49ZM18.17 5.08C17.96 5.28 17.85 5.56 17.85 5.85C17.85 6.14 17.96 6.42 18.17 6.62C18.37 6.83 18.65 6.94 18.94 6.94C19.23 6.94 19.51 6.83 19.71 6.62C19.92 6.42 20.03 6.14 20.03 5.85C20.03 5.56 19.92 5.28 19.71 5.08C19.51 4.87 19.23 4.76 18.94 4.76C18.65 4.76 18.37 4.87 18.17 5.08ZM6.4 12.39C6.4 15.7 9.09 18.39 12.4 18.39C15.7 18.39 18.4 15.7 18.4 12.39C18.4 9.09 15.7 6.39 12.4 6.39C9.09 6.39 6.4 9.09 6.4 12.39ZM17.3 12.39C17.3 15.11 15.11 17.3 12.4 17.3C9.68 17.3 7.49 15.11 7.49 12.39C7.49 9.68 9.68 7.49 12.4 7.49C15.11 7.49 17.3 9.68 17.3 12.39Z" stroke="#FFFFFF" stroke-opacity="1.000000" stroke-width="0.800000"/>
</svg>
